components/Common/Svg/svgs/uxDesign.svg

<svg width="40" height="40" viewBox="0 0 40 40" fill="none" xmlns="http://www.w3.org/2000/svg">
<path d="M35.2978 5.56429H4.70229C3.07537 5.56429 1.75479 6.9019 1.75479 8.54279V31.4572C1.75479 33.0981 3.07537 34.4357 4.70229 34.4357H35.2978C36.9247 34.4357 38.2453 33.0981 38.2453 31.4572V8.54279C38.2453 6.9019 36.9247 5.56429 35.2978 5.56429ZM4.70229 6.93841H35.2978C36.1701 6.93841 36.8829 7.65673 36.8829 8.54279V10.1472H3.11713V8.54279C3.11713 7.65673 3.82994 6.93841 4.70229 6.93841ZM35.2978 33.0616H4.70229C3.82994 33.0616 3.11713 32.3433 3.11713 31.4572V11.5213H36.8829V31.4572C36.8829 32.3433 36.1701 33.0616 35.2978 33.0616Z" fill="#161616" stroke="#161616" stroke-width="0.3"/>
<path fill-rule="evenodd" clip-rule="evenodd" d="M24.6 17.6V26.4H30.4V17.6H24.6ZM24 16C23.4477 16 23 16.4477 23 17V21.2H17V18C17 17.4477 16.5523 17 16 17H9C8.44772 17 8 17.4477 8 18V25C8 25.5523 8.44772 26 9 26H16C16.5523 26 17 25.5523 17 25V22.8H23V27C23 27.5523 23.4477 28 24 28H31C31.5523 28 32 27.5523 32 27V17C32 16.4477 31.5523 16 31 16H24ZM9.6 18.6V24.4H15.4V18.6H9.6Z" fill="#161616"/>
</svg>

<svg width="40" height="40" viewBox="0 0 40 40" fill="none" xmlns="http://www.w3.org/2000/svg"><path d="M35.298 5.564H4.702c-1.627 0-2.947 1.338-2.947 2.979v22.914c0 1.641 1.32 2.979 2.947 2.979h30.596c1.627 0 2.947-1.338 2.947-2.979V8.543c0-1.641-1.32-2.979-2.947-2.979ZM4.702 6.938h30.596c.872 0 1.585.719 1.585 1.605v1.604H3.117V8.543c0-.886.713-1.605 1.585-1.605Zm30.596 26.124H4.702a1.597 1.597 0 0 1-1.585-1.605V11.521h33.766v19.936c0 .886-.713 1.605-1.585 1.605Z" fill="#161616" stroke="#161616" stroke-width=".3"/><path fill-rule="evenodd" clip-rule="evenodd" d="M24.6 17.6v8.8h5.8v-8.8h-5.8ZM24 16a1 1 0 0 0-1 1v4.2h-6V18a1 1 0 0 0-1-1H9a1 1 0 0 0-1 1v7a1 1 0 0 0 1 1h7a1 1 0 0 0 1-1v-2.2h6V27a1 1 0 0 0 1 1h7a1 1 0 0 0 1-1V17a1 1 0 0 0-1-1h-7ZM9.6 18.6v5.8h5.8v-5.8H9.6Z" fill="#161616"/></svg>
